svg/other/hand_card_line.svg

<?xml version="1.0" encoding="UTF-8"?>
<svg width="24px" height="24px" viewBox="0 0 24 24" version="1.1" xmlns="http://www.w3.org/2000/svg" xmlns:xlink="http://www.w3.org/1999/xlink">
    <title>hand_card_line</title>
    <g id="Icon" stroke="none" stroke-width="1" fill="none" fill-rule="evenodd">
        <g id="Other" transform="translate(-720.000000, 0.000000)">
            <g id="hand_card_line" transform="translate(720.000000, 0.000000)">
                <path d="M24,0 L24,24 L0,24 L0,0 L24,0 Z M12.5935,23.2578 L12.5819,23.2595 L12.5109,23.295 L12.4919,23.2987 L12.4767,23.295 L12.4057,23.2595 C12.3958,23.2564 12.387,23.259 12.3821,23.2649 L12.378,23.2758 L12.3609,23.7031 L12.3659,23.7235 L12.3769,23.7357 L12.4805,23.8097 L12.4953,23.8136 L12.5071,23.8097 L12.6107,23.7357 L12.6233,23.7197 L12.6267,23.7031 L12.6096,23.2758 C12.6076,23.2657 12.601,23.2593 12.5935,23.2578 Z M12.8584,23.1453 L12.8445,23.1473 L12.6598,23.2397 L12.6499,23.2499 L12.6472,23.2611 L12.6651,23.6906 L12.6699,23.7034 L12.6784,23.7105 L12.8793,23.8032 C12.8914,23.8069 12.9022,23.803 12.9078,23.7952 L12.9118,23.7812 L12.8777,23.1665 C12.8753,23.1546 12.8674,23.147 12.8584,23.1453 Z M12.143,23.1473 C12.1332,23.1424 12.1222,23.1453 12.1156,23.1526 L12.1099,23.1665 L12.0758,23.7812 C12.0751,23.7927 12.0828,23.8019 12.0926,23.8046 L12.1083,23.8032 L12.3092,23.7105 L12.3186,23.7024 L12.3225,23.6906 L12.3404,23.2611 L12.3372,23.2485 L12.3278,23.2397 L12.143,23.1473 Z" id="MingCute" fill-rule="nonzero"></path>
                <path d="M10,4 C8.89543,4 8,4.89543 8,6 L8,7.04331 C6.91636,7.1869 5.90281,7.68298 5.12132,8.46446 L2.29289,11.2929 C1.90237,11.6834 1.90237,12.3166 2.29289,12.7071 C2.68342,13.0976 3.31658,13.0976 3.70711,12.7071 L6.53554,9.87868 C6.94065,9.47357 7.44969,9.19628 8,9.07278 L8,12.7194 L7.37531,13.2191 C6.94404,13.5641 6.87412,14.1934 7.21913,14.6247 C7.56414,15.056 8.19343,15.1259 8.62469,14.7809 L11.528,12.4583 C12.3237,11.8216 13.471,11.8852 14.1916,12.6058 L14.4776,12.8918 L7.93333,17.8 C7.76024,17.9298 7.5497,18 7.33333,18 L3,18 C2.44772,18 2,18.4477 2,19 C2,19.5523 2.44772,20 3,20 L7.33333,20 C7.98244,20 8.61404,19.7895 9.13333,19.4 L15,15 L20,15 C21.1046,15 22,14.1046 22,13 L22,6 C22,4.89543 21.1046,4 20,4 L10,4 Z M10,11.1194 L10.2786,10.8965 C11.8701,9.62327 14.1646,9.75034 15.6058,11.1916 L15.8918,11.4776 C16.3134,11.8992 16.5042,12.4559 16.4747,13 L20,13 L20,9 L10,9 L10,11.1194 Z M20,7 L20,6 L10,6 L10,7 L20,7 Z" id="形状" fill="#09244B"></path>
            </g>
        </g>
    </g>
</svg>

<svg xmlns="http://www.w3.org/2000/svg" width="24" height="24"><g fill="none" fill-rule="evenodd"><path d="M24 0v24H0V0h24ZM12.594 23.258l-.012.002-.071.035-.02.004-.014-.004-.071-.036c-.01-.003-.019 0-.024.006l-.004.01-.017.428.005.02.01.013.104.074.015.004.012-.004.104-.074.012-.016.004-.017-.017-.427c-.002-.01-.009-.017-.016-.018Zm.264-.113-.014.002-.184.093-.01.01-.003.011.018.43.005.012.008.008.201.092c.012.004.023 0 .029-.008l.004-.014-.034-.614c-.003-.012-.01-.02-.02-.022Zm-.715.002a.023.023 0 0 0-.027.006l-.006.014-.034.614c0 .012.007.02.017.024l.015-.002.201-.093.01-.008.003-.011.018-.43-.003-.012-.01-.01-.184-.092Z"/><path fill="#09244B" d="M10 4a2 2 0 0 0-2 2v1.043a5 5 0 0 0-2.879 1.421l-2.828 2.829a1 1 0 1 0 1.414 1.414L6.536 9.88A3 3 0 0 1 8 9.073v3.646l-.625.5a1 1 0 0 0 1.25 1.562l2.903-2.323a2 2 0 0 1 2.664.148l.286.286L7.933 17.8a1 1 0 0 1-.6.2H3a1 1 0 1 0 0 2h4.333a3 3 0 0 0 1.8-.6L15 15h5a2 2 0 0 0 2-2V6a2 2 0 0 0-2-2H10Zm0 7.12.279-.223a4 4 0 0 1 5.327.295l.286.286c.421.421.612.978.583 1.522H20V9H10v2.12ZM20 7V6H10v1h10Z"/></g></svg>
